X: 245
T:Jig 134
M:6/8
L:1/8
S:Smoke In Your Eyes
R:Jig
O:Seattle Session Tunes
B:Smoke In Your Eyes
Z:Coaimhin Gaim
K:A
d||: cBA BAF | dAF 2D d | cBA BAF | AFE 2Ed | cBA BAF | DFA 2d e | fed c
Bc |1 BAG 2A d:|2 BAG 2A B|| cAA eAA | fef edc | dbb fbb | fef fed | cAA
eAA| fef ef^g | fed cdc |1 BAG 2A B:|2 BAG A3||
<end>
<start>
